!!!COM: Hindemith, Paul
!!!OTL: Octet
!!!OMV: V: Fugue and Three Old-Fashioned Dances: Waltz, Polka, and Galop
!!!example: 663
!!!work: Hin-99
**kern	**dynam	**kern	**dynam	**kern	**dynam	**kern	**dynam	**kern	**dynam	**kern	**dynam	**kern	**dynam	**kern	**dynam
*part8	*part8	*part7	*part7	*part6	*part6	*part5	*part5	*part4	*part4	*part3	*part3	*part2	*part2	*part1	*part1
*staff8	*	*staff7	*	*staff6	*	*staff5	*	*staff4	*	*staff3	*	*staff2	*	*staff1	*
*I"Contrabass	*	*I"Violoncello	*	*I"Viola II	*	*I"Viola I	*	*I"Violin	*	*I"Horn in F	*	*I"Basson	*	*I"Clarinet in Bb	*
*clefF4	*	*clefG2	*	*clefC3	*	*clefG2	*	*clefG2	*	*clefF4	*	*clefF4	*	*clefG2	*
*Trd0c0	*	*	*	*	*	*	*	*	*	*	*	*	*	*	*
*k[]	*	*k[]	*	*k[]	*	*k[]	*	*k[]	*	*k[]	*	*k[]	*	*k[]	*
*C:	*	*C:	*	*C:	*	*C:	*	*C:	*	*C:	*	*C:	*	*C:	*
*M3/8	*	*M3/8	*	*M3/8	*	*M3/8	*	*M3/8	*	*M3/8	*	*M3/8	*	*M3/8	*
*MM121	*	*MM121	*	*MM121	*	*MM121	*	*MM121	*	*MM121	*	*MM121	*	*MM121	*
=171	=171	=171	=171	=171	=171	=171	=171	=171	=171	=171	=171	=171	=171	=171	=171
8B-XL	<	(>4.cc	< [	8r)	<	8r	<	8r	<	8BBB-X	<	8A-X'L	<	8aa-X'L	<
8F	.	.	.	8b-X	.	8bb-X	.	8bbb-X	.	8r	.	8r	.	8r	.
8GJ	[	.	.	8r	[	8r	[	8r	[	8r	[	(>16E-XL	.	(>16ee-XL	.
.	.	.	.	.	.	.	.	.	.	.	.	16DJJ	[	16ddJJ	[
=172	=172	=172	=172	=172	=172	=172	=172	=172	=172	=172	=172	=172	=172	=172	=172
4E-X	.	4.dd-X)	> ]	8r	.	8r	.	8r	.	8EE-X	mf	8FL)	.	8ffL)	.
.	.	.	.	8a-X	mf	8aa-X	mf	8aaa-X	mf	8r	.	8r	.	8r	.
8r	.	.	.	8r	.	8r	.	8r	.	8r	.	(>16d-XL	>	(>16ddd-XL	>
.	.	.	.	.	.	.	.	.	.	.	.	16cJJ	.	16cccJJ	.
=173	=173	=173	=173	=173	=173	=173	=173	=173	=173	=173	=173	=173	=173	=173	=173
8B-XL	.	(>8b-X	p	8r	.	8r	.	8r	.	8BBB-X	.	8e-XL	.	8eee-XL	.
8F	.	4cc	.	8g	p	8gg	p	8ggg	p	8r	.	8B-X	.	8bb-X	.
8GJ	.	.	.	8r	.	8r	.	8r	.	8r	.	8FJ	]	8ffJ	]
=174	=174	=174	=174	=174	=174	=174	=174	=174	=174	=174	=174	=174	=174	=174	=174
8E-X	.	4an)	.	8r	.	8r	.	8r	.	8EE-X	.	8EnL	.	8eenL	.
8r	.	.	.	8f#X	.	8ff#X	.	8fff#X	.	8r	.	8BBn)	.	8bn)	.
*	*	*clefC4	*	*	*	*	*	*	*	*	*	*	*	*	*
8r	.	(>8e	.	8r	.	8r	.	8r	.	8r	.	(<16AAL	.	(>16aL	.
.	.	.	.	.	.	.	.	.	.	.	.	16C'JJ)	.	16cc'JJ)	.
=175	=175	=175	=175	=175	=175	=175	=175	=175	=175	=175	=175	=175	=175	=175	=175
8E-X	.	8gL	.	8r	.	8r	.	8r	.	8EE-X	.	8AA-XL	.	8a-XL	.
8r	.	8f	.	8e	.	8ee	.	8eee	.	8r	.	(<16AAnL	.	(<16anL	.
.	.	.	.	.	.	.	.	.	.	.	.	16C'J)	.	16cc'J)	.
8r	.	8eJ)	.	8r	.	8r	.	8r	.	8r	.	8AA-XJ	.	8a-XJ	.
=176	=176	=176	=176	=176	=176	=176	=176	=176	=176	=176	=176	=176	=176	=176	=176
8E-X	.	(>8Bn	.	8r	.	8r	.	8r	.	8EE-X	.	(<16AAnLL	.	(<16anLL	.
.	.	.	.	.	.	.	.	.	.	.	.	16C'J)	.	16cc'J)	.
8r	.	4c)	.	8e-X	.	8ee-X	.	8eee-X	.	8r	.	8AA-X	.	8a-X	.
8r	.	.	.	8r	.	8r	.	8r	.	8r	.	(<16AAnL	.	(<16anL	.
.	.	.	.	.	.	.	.	.	.	.	.	16C'JJ)	.	16cc'JJ)	.
=177||	=177||	=177||	=177||	=177||	=177||	=177||	=177||	=177||	=177||	=177||	=177||	=177||	=177||	=177||	=177||
*	*	*clefF4	*	*	*	*clefC3	*	*	*	*	*	*	*	*	*
*M2/4	*	*M2/4	*	*M2/4	*	*M2/4	*	*M2/4	*	*M2/4	*	*M2/4	*	*M2/4	*
!LO:TX:t=arco	!	!	!	!LO:TX:t=arco	!	!LO:TX:t=arco	!	!LO:TX:t=arco	!	!	!	!	!	!LO:TX:B:t=Polka (q etwa 92)	!
8AA-X'u	p	8AA-X'u	p	8r	mf	8r	mf	8r	mf	2r	.	8AA-X	.	8a-X	.
8r	.	8r	.	(<4E-Xu	<	(>4c-Xu	<	4.A-Xu	.	.	.	8r	.	8r	.
.	.	.	.	.	.	.	.	.	.	.	.	.	.	(<16qqa-/LL	pp
.	.	.	.	.	.	.	.	.	.	.	.	.	.	16qqdd-X/JJ	.
8FF'u	.	8FF'u	.	.	.	.	.	.	.	.	.	4r	.	8ee-X)	.
.	.	.	.	.	.	8qf-X/	[	.	.	.	.	.	.	.	.
8r	.	8r	.	8F)	[	8e-X)	.	.	.	.	.	.	.	8r	.
=178	=178	=178	=178	=178	=178	=178	=178	=178	=178	=178	=178	=178	=178	=178	=178
8E-X'u	.	8E-X'u	.	8r	.	8r	.	8r	.	2r	.	2r	.	4.r	.
.	.	.	.	.	.	(>8qe-X/	.	.	.	.	.	.	.	.	.
8r	.	8r	.	16G-XvLL	.	16d-XvLL)	.	(<8A-Xv	.	.	.	.	.	.	.
.	.	.	.	16FJJ	.	16cnJJ	.	.	.	.	.	.	.	.	.
8r	.	8r	.	(<8.G-L	<	(>4d-	< [	4d-X	< [	.	.	.	.	.	.
.	.	.	.	.	.	.	.	.	.	.	.	.	.	(<16qqa-X/LL	.
.	.	.	.	.	.	.	.	.	.	.	.	.	.	16qqdd-X/JJ	.
(<8Cu	.	(<8Cu	.	.	.	.	.	.	.	.	.	.	.	8ee-X)	.
.	.	.	.	16A-XJk	[	.	.	.	.	.	.	.	.	.	.
=179	=179	=179	=179	=179	=179	=179	=179	=179	=179	=179	=179	=179	=179	=179	=179
8AA-X)	.	8AA-X)	.	16.B-XLL)	.	16.g-XLL)	.	16.e-XLL)	.	2r	.	2r	.	4r	.
.	.	.	.	(<32c-XJJk	.	(>32a-XJJk	.	(<32f-XJJk	.	.	.	.	.	.	.
8r	.	8r	.	4.B-)	>	4g-)	.	4.e-	>	.	.	.	.	.	.
.	.	.	.	.	.	.	.	.	.	.	.	.	.	(<16qqa-X/LL	.
.	.	.	.	.	.	.	.	.	.	.	.	.	.	16qqdd-X/JJ	.
8FFn'u	.	8FFn'u	.	.	.	.	.	.	.	.	.	.	.	8ee-X)	.
8r	.	8r	.	.	.	[8f-X	>	.	.	.	.	.	.	8r	.
=180	=180	=180	=180	=180	=180	=180	=180	=180	=180	=180	=180	=180	=180	=180	=180
8G-X'u	.	8G-X'u	.	4.A-X	]	8f-L]	]	4.d-X)	]	2r	.	2r	.	8r	.
.	.	.	.	.	.	.	.	.	.	.	.	.	.	(<16qqa-X/LL	.
.	.	.	.	.	.	.	.	.	.	.	.	.	.	16qqdd-X/JJ	.
8r	.	8r	.	.	.	16e-XL	.	.	.	.	.	.	.	8ee-X)	.
.	.	.	.	.	.	16dnJJ	.	.	.	.	.	.	.	.	.
8r	.	8r	.	.	.	8.e-L	<	.	.	.	.	.	.	4r	.
(>8B-Xu	< [	(>8B-Xu	< [	(>8B-X	< [	.	.	(<8e-X	< [	.	.	.	.	.	.
.	.	.	.	.	.	(>16g-XJk	[	.	.	.	.	.	.	.	.
=181	=181	=181	=181	=181	=181	=181	=181	=181	=181	=181	=181	=181	=181	=181	=181
8An)	.	8An)	.	8c-X)	.	16.cc-XLL)	.	8f-X)	.	2r	.	2r	.	2r	.
.	.	.	.	.	.	(>32dd-XJJk	.	.	.	.	.	.	.	.	.
8r	.	8r	.	4d-X	.	4cc-)	.	4g-X	.	.	.	.	.	.	.
8Eu	.	8Eu	.	.	.	.	.	.	.	.	.	.	.	.	.
8r	.	8r	.	16e-XLL	.	(>8b-X	.	16a-XLL	.	.	.	.	.	.	.
.	.	.	.	16d-JJ	.	.	.	16g-JJ	.	.	.	.	.	.	.
=	=	=	=	=	=	=	=	=	=	=	=	=	=	=	=
*-	*-	*-	*-	*-	*-	*-	*-	*-	*-	*-	*-	*-	*-	*-	*-
!!!system-decoration: [(s1,s2,s3)][(s4[(s5,s6)]s7,s8)]
!!!RDF**kern: > = above
!!!RDF**kern: < = below
!!!CDT: 1895/11/16-1963/12/28
!!!CBL: Hanau, Germany
!!!CDL: Frankfurt, Germany
!!!CNT: German
!!!AGN: Instrumental; Chamber
!!!MCN:
!!!MDT: 1958/09/23
!!!MGN: Members of Chamber Music Society of the Berlin Philharmonic Orchestra
!!!MLC:
!!!MPD: 1958
!!!MPN: Hindemith, Paul
!!!ODT: 1958
!!!PDT: 1958
!!!excerpt-start-measure: 171
!!!excerpt-end-measure: 177
!!!excerpt-start-time: 4:14
!!!excerpt-end-time: 4:21
!!!EEV: 2020/01/22
!!!ONB: Converted from MusicXML on 2020/01/22
